X:1
T:Violin Caprice No. 18 in C Major
T:Violin Caprice No. 18 in C Major
T:Op. 1, No. 18
T:Niccolò Paganini
C:Niccolò Paganini
L:1/8
Q:1/4=110
M:6/8
K:C
V:1 treble nm="Violin" snm="Vln."
V:1
S"^Corrente"!f!"^Tutto sul G"{/CE} !>!G2 (!>!G, .C.E.G | .E.C.G !>!G,2) z | %2
{/CE} !>!G2 (!>!G, .C.E.G | .E.C.G !>!G,2) z |{/CE} G2 G, .C.E.G |!f! (!>!cGe!f! !>!cGe) | %6
!f! (!>!cGE!f! !>!GEC) |{/G,} G3 !fermata!z3 |{/CE} !>!G2 (!>!G, .C.E.G | .E.C.G !>!G,2) z | %10
{/CE} !>!G2 (!>!G, .C.E.G | .E.C.G !>!G,2) z |{/CE} G2 G, .C.E.G |!f! !>!cGe!f! !>!cGe | %14
!f! !>!cGE!f! !>!CGG, |{/C} c3 z3!fine! || %16
[M:4/4]!p![Q:1/4=110]"^Allegro" (c/c'/).b/.a/ .g/.f/.e/.d/ | %17
 ([ce]/[c'e']/).[bd']/.[ac']/ .[gb]/.[fa]/.[eg]/.[df]/ .[ce]/.[Bd]/.[Ac]/.[GB]/ .[FA]/.[EG]/.[DF]/.[CE]/ | %18
 (!>![CE]2 [B,D]) z (d/d'/).c'/.b/ .a/.g/.f/.e/ | %19
 ([df]/[d'f']/).[c'e']/.[bd']/ .[ac']/.[gb]/.[fa]/.[eg]/ .[df]/.[ce]/.[Bd]/.[Ac]/ .[GB]/.[FA]/.[EG]/.[DF]/ | %20
 (!>![DF]2 [CE]) z ([eg]/[ce]/).[df]/.[^d^f]/ .[eg]/.[ac']/.[ac']/.[gb]/ | %21
 .[gb]/.[=fa]/.[eg]/.[^d^f]/ ([df][eg]) ([eg]/[ce]/).[=d=f]/.[^d^f]/ .[eg]/.[ac']/.[ac']/.[gb]/ | %22
 .[gb]/.[=fa]/.[eg]/.[^d^f]/ ([df][eg]) ([EG]/[CE]/).[=D=F]/.[^D^F]/ .[EG]/.[=FA]/"_cresc.".[GB]/.[Ac]/ | %23
 .[Bd]/.[ce]/.[df]/.[eg]/ .[fa]/.[gb]/.[ac']/.[bd']/!mf! [c'e'] z{/D} [a^f'] z | %24
"^( )"{/[G,D]} [gg']2 z2 ||!p! (G/g/).^f/.e/ .d/.c/.B/.A/ | %26
 ([GB]/[gb]/)"_cresc.".[^fa]/.[eg]/ .[df]/.[ce]/.[Bd]/.[Ac]/ ([GB]/[bd']/)[B,D]/[CE]/ [D=F]/[EG]/[FA]/[EG]/ | %27
 ([EG]/[DF]/)([DF]/[CE]/) ([CE][B,D])!p! (G/g/).^f/.e/ .d/.c/.B/.A/ | %28
 ([GB]/[gb]/).[^fa]/.[eg]/ .[df]/.[ce]/.[Bd]/.[Ac]/ ([GB]/[bd']/)[B,D]/[CE]/ [D=F]/[EG]/[FA]/[EG]/ | %29
 ([EG]/[DF]/)([DF]/[CE]/) ([CE][B,D])!p! (c/c'/).b/.a/ .g/.f/.e/.d/ | %30
 ([ce]/[c'e']/).[bd']/.[ac']/ .[gb]/.[fa]/.[eg]/.[df]/ ([ce]/[e'g']/).[d'f']/.[c'e']/ .[bd']/.[ac']/.[gb]/.[fa]/ | %31
 [eg][ce]/[df]/ [eg]/[ac']/[gb]/[fa]/ ([fa]/[eg]/)[ce]/[df]/ [eg]/[e^g]/[fa]/[^d^f]/ | %32
"_cresc." [eg]/[=d=f]/[ce]/[Bd]/ [Ac]/[GB]/[FA]/[EG]/ [FA] z!f! [G,Gfb] z | [CGec']2 z2 |: %34
!p![Q:1/4=110]"^Minore" (A/a/).g/.f/ .e/.d/.c/.B/ | %35
 ([Ac]/[ac']/).[gb]/.[fa]/ .[eg]/.[df]/.[ce]/.[Bd]/ [Ac][Bd]/[B^d]/ [ce]/[ca]/[ce]/[=df]/ | %36
 ([df]/[ce]/)[Ac]/[Bd]/ [ce]/[ca]/[ce]/[df]/ ([df]/[ce]/)[ca]/[ce]/ [ce]/[Bd]/[df]/[ce]/ | %37
"_cresc." ([Bd]/[Ac]/).[Ac]/.[Gc]/ .[Gc]/.[Fc]/.[Fc]/.[Ec]/ .[Ec]/.[^Dc]/.[Dc]/.[DB]/ .[DB]/.[DA]/.[Dc]/.[DA]/ | %38
!f! (E3/2^G/4B/4 e) z :|!p! (C/c/).B/.A/ .G/.F/.E/.D/ | %40
 ([CE]/[g_b]/).[fa]/.[eg]/ .[df]/.[ce]/.[eg]/.[df]/"_cresc." .[ce]/.[Bd]/.[Ac]/.[G_B]/ .[FA]/.[EG]/.[DF]/.[CE]/ | %41
 (!>![_B,E]2 [A,F]) z!p! (D/d/).c/.=B/ .A/.G/.^F/.E/ | %42
 ([D^F]/[ac']/).[gb]/.[^fa]/ .[eg]/.[df]/.[fa]/.[eg]/"_cresc." .[df]/.[ce]/.[Bd]/.[Ac]/ .[GB]/.[FA]/.[EG]/.[DF]/ | %43
 (!>![C^F]2 [B,G]) z ([G,=F]/[df]/).[ce]/.[Bd]/ .[Ac]/.[GB]/.[FA]/.[EG]/ | %44
 .[DF]/.[CE]/.[B,D]/.[DF]/ ([CE][EG]) ([G,F]/[df]/).[ce]/.[Bd]/ .[Ac]/.[GB]/.[FA]/.[EG]/ | %45
 .[DF]/.[CE]/.[B,D]/.[DF]/ ([CE][EG]) ([FA]/[Ac]/).[GB]/.[^FA]/ ([GB]/[Bd]/).[Ac]/.[^GB]/ | %46
 ([Ac]/[ce]/).[Bd]/.[Ac]/ .[Bd]/.[df]/.[ce]/.[Bd]/ .[ce]/.[Bd]/.[Ac]/.[^GB]/ .[Ac]/.[FA]/.[EA]/.[^DA]/ | %47
 (!>![EA]2 [E^G]) z!p! (A/a/).=g/.f/ .e/.d/.c/.B/ | %48
 ([Ac]/[ac']/).[gb]/.[fa]/ .[eg]/.[df]/.[ce]/.[Bd]/ ([Ac]/[c'e']/).[bd']/.[ac']/ .[gb]/.[fa]/.[eg]/.[df]/ | %49
"_cresc." [ce][Ac]/[Bd]/ [ce]/[ca]/[ce]/[df]/ ([df]/[ce]/)[ca]/[ce]/ [ce]/[Bd]/[df]/[ce]/ | %50
 ([Bd]/[Ac]/).[Ac]/.[Gc]/ .[Gc]/.[Fc]/.[Fc]/.[Ec]/ .[Ec]/.[^Dc]/.[DB]/.[DA]/ .[Ec]/.A/.[EB]/.^G/ | %51
!f! (A,3/2E/4c/4 a) z!D.S.! || %52

